X: 5
T: Gavotte
R: slide
M: 12/8
L: 1/8
K: Ador
K:Am
M:3/4
|: AGAB c2 | Bcdc B2 | AGAB c2 | Bcdc B2 :|
|:c2 dc B2 | ABcB AG | c2 dc B2 | ABcB A2 :|


Tune 2081	Setting 15470

